mobile/24/svg/device-mobile-24.svg

<svg width="24" height="24" viewBox="0 0 24 24" fill="none" xmlns="http://www.w3.org/2000/svg">
<path fill-rule="evenodd" clip-rule="evenodd" d="M7 2C5.61975 2 4.5 3.11975 4.5 4.5V19.5C4.5 20.8802 5.61975 22 7 22H17C18.3802 22 19.5 20.8802 19.5 19.5V4.5C19.5 3.11975 18.3802 2 17 2H7ZM6.25 4.5C6.25 4.08625 6.58625 3.75 7 3.75H17C17.4138 3.75 17.75 4.08625 17.75 4.5V17H6.25V4.5ZM10 20.25H14V18.75H10V20.25Z" fill="black"/>
</svg>

<svg width="24" height="24" fill="none" xmlns="http://www.w3.org/2000/svg"><path fill-rule="evenodd" clip-rule="evenodd" d="M7 2a2.5 2.5 0 0 0-2.5 2.5v15A2.5 2.5 0 0 0 7 22h10a2.5 2.5 0 0 0 2.5-2.5v-15A2.5 2.5 0 0 0 17 2H7zm-.75 2.5A.75.75 0 0 1 7 3.75h10a.75.75 0 0 1 .75.75V17H6.25V4.5zM10 20.25h4v-1.5h-4v1.5z" fill="#000"/></svg>
